X: 1
T: Homeward Bound
S: Roaring Jelly collection
S: page from Concord Slow Scottish Session collection
N: Cape Breton version of the old Irish tune
B: Ryan/Cole
M: C|
R: reel
K: D
A, !segno!|\
"D"D2DE FEDF | A2AF    "Em"ABde | "D"f<aed "G"B2dB | "D"AFEF "A"DB,A,B, |
"D"D2DE FEDF | A/A/A AF "Em"ABde | "D"f<aed "G"B2dB | "A"AFEF "D"D/D/D D :|
|: g |\
"D"fdfg afdf | "Em"e/e/e ed "A"efg2 | "D"fdfg afdf | "A"edef "D"d/d/d dg |
"D"fdfg afdf | "Em"e/e/e ed "A"efg2 | "D"f/g/a ed "G"B2dB | "A"AFEF [1 "D"D/D/D D :|[2 "D"DB,A,"d.S."B, |]
